cssgg/format-indent-increase.svg

<svg viewBox="0 0 24 24" xmlns="http://www.w3.org/2000/svg"><g><path d="M20 7H4V5h16v2Z"/><path d="M20 11h-8V9h8v2Z"/><path d="M12 15h8v-2h-8v2Z"/><path d="M4 15l5-3L4 9v6Z"/><path d="M4 17v2h16v-2H4Z"/></g></svg>

<svg
  width="24"
  height="24"
  viewBox="0 0 24 24"
  fill="none"
  xmlns="http://www.w3.org/2000/svg"
>
  <path d="M20 7H4V5H20V7Z" fill="currentColor" />
  <path d="M20 11H12V9H20V11Z" fill="currentColor" />
  <path d="M12 15H20V13H12V15Z" fill="currentColor" />
  <path d="M4 15L9 12L4 9V15Z" fill="currentColor" />
  <path d="M4 17V19H20V17H4Z" fill="currentColor" />
</svg>
